; generated by PrusaSlicer 2.9.2 on 2025-07-14 at 19:19:29 UTC


;
;
; 

; external perimeters extrusion width = 0.45mm
; perimeters extrusion width = 0.45mm
; infill extrusion width = 0.45mm
; solid infill extrusion width = 0.45mm
; top infill extrusion width = 0.40mm
; support material extrusion width = 0.35mm
; first layer extrusion width = 0.42mm

M73 P0 R62
M73 Q0 S64
M201 X1000 Y1000 Z200 E5000 ; sets maximum accelerations, mm/sec^2
M203 X200 Y200 Z12 E120 ; sets maximum feedrates, mm / sec
M204 S1250 T1250 ; sets acceleration (S) and retract acceleration (R), mm/sec^2
M205 X8.00 Y8.00 Z0.40 E4.50 ; sets the jerk limits, mm/sec
M205 S0 T0 ; sets the minimum extruding and travel feed rate, mm/sec

; printing object Body1 id:0 copy 0
; stop printing object Body1 id:0 copy 0

;TYPE:Custom
M862.3 P "MK3S" ; printer model check
M862.1 P0.4 ; nozzle diameter check
M115 U3.14.1 ; tell printer latest fw version
G90 ; use absolute coordinates
M83 ; extruder relative mode
M104 S215 ; set extruder temp
M140 S60 ; set bed temp
M190 S60 ; wait for bed temp
M109 S215 ; wait for extruder temp
G28 W ; home all without mesh bed level
G80 X66.1106 Y77.3935 W117.779 H55.213 ; mesh bed levelling

G1 Z0.2 F720
G1 Y-3 F1000 ; go outside print area
G92 E0
G1 X60 E9 F1000 ; intro line
G1 X100 E12.5 F1000 ; intro line

G92 E0
M221 S95

; Don't change E values below. Excessive value can damage the printer.

M907 E538 ; set extruder motor current
G21 ; set units to millimeters
G90 ; use absolute coordinates
M83 ; use relative distances for extrusion

M900 K0.05 ; Filament gcode LA 1.5
M900 K30 ; Filament gcode LA 1.0




M107
;LAYER_CHANGE
;Z:0.2
;HEIGHT:0.2
G1 E-.8 F2100
G1 Z.6 F720
G1 X66.69 Y82.325 F10800
G1 Z.2 F720
G1 E.8 F2100
M204 S800
;TYPE:Skirt/Brim
;WIDTH:0.42
G1 F1200
G1 X68.37 Y81.388 E.06031
G1 X139.144 Y77.585 E2.22227
G1 X167.786 Y77.582 E.89805
G1 X168.37 Y77.661 E.01848
G1 X177.392 Y80.161 E.29354
G1 X178.415 Y80.519 E.03398
G1 X179.524 Y81.08 E.03897
G1 X180.78 Y82 E.04882
G1 X181.442 Y82.649 E.02907
G1 X182.212 Y83.623 E.03893
G1 X182.966 Y84.985 E.04881
G1 X183.293 Y85.852 E.02905
G1 X183.583 Y87.06 E.03895
G1 X183.701 Y88.455 E.0439
G1 X183.701 Y121.5 E1.0361
G1 X183.629 Y122.579 E.03391
G1 X183.296 Y124.094 E.04864
G1 X182.839 Y125.244 E.0388
G1 X182.222 Y126.317 E.03881
G1 X181.457 Y127.29 E.03881
G1 X180.56 Y128.143 E.03881
G1 X179.817 Y128.69 E.02893
G1 X178.736 Y129.293 E.03881
G1 X177.43 Y129.784 E.04375
G1 X168.38 Y132.336 E.29482
G1 X167.786 Y132.418 E.0188
G1 X139.262 Y132.418 E.89435
G1 X68.368 Y128.544 E2.22615
G1 X67.143 Y128.085 E.04102
G1 X66.299 Y126.359 E.06024
G1 X66.299 Y83.573 E1.34152
G1 X66.672 Y82.382 E.03913
M204 S1000
;WIPE_START
G1 F8640
G1 X66.69 Y82.325 E-.0138
G1 X68.37 Y81.388 E-.44417
G1 X69.849 Y81.309 E-.34203
;WIPE_END
G1 Z.6 F720
; printing object Body1 id:0 copy 0
G1 X167.047 Y94.33 F10800
G1 Z.2 F720
M73 Q0 S63
G1 E.8 F2100
M204 S800
;TYPE:Perimeter
;WIDTH:0.419999
G1 F1200
G1 X168.099 Y95.293 E.04472
G1 X169.126 Y96.472 E.04902
G1 X169.978 Y97.707 E.04704
G1 X170.689 Y99.029 E.04706
G1 X171.231 Y100.362 E.04512
G1 X171.642 Y101.805 E.04704
G1 X171.893 Y103.285 E.04707
G1 X171.979 Y104.783 E.04705
G1 X171.893 Y106.344 E.04902
G1 X171.655 Y107.768 E.04527
G1 X171.231 Y109.267 E.04884
G1 X170.663 Y110.656 E.04705
G1 X169.945 Y111.975 E.04709
G1 X169.126 Y113.157 E.04509
G1 X168.142 Y114.291 E.04708
G1 X167.041 Y115.31 E.04704
G1 X165.833 Y116.201 E.04706
G1 X164.535 Y116.955 E.04707
G1 X164.2 Y117.106 E.01152
G1 X163.104 Y117.583 E.03748
G1 X161.67 Y118.027 E.04707
G1 X160.197 Y118.312 E.04704
G1 X158.701 Y118.432 E.04706
G1 X157.201 Y118.388 E.04705
G1 X155.714 Y118.178 E.04709
G1 X154.26 Y117.806 E.04706
G1 X152.913 Y117.302 E.04509
G1 X151.518 Y116.596 E.04902
G1 X150.264 Y115.772 E.04705
G1 X149.107 Y114.816 E.04706
G1 X148.063 Y113.737 E.04708
G1 X147.144 Y112.551 E.04704
G1 X146.361 Y111.27 E.04707
G1 X145.737 Y109.941 E.04603
G1 X145.257 Y108.552 E.04608
G1 X144.925 Y107.087 E.0471
G1 X144.757 Y105.596 E.04705
G1 X144.753 Y104.966 E.01975
G1 X144.753 Y104.095 E.02731
G1 X144.925 Y102.542 E.04899
G1 X145.257 Y101.078 E.04707
G1 X145.737 Y99.69 E.04605
G1 X146.361 Y98.36 E.04606
G1 X147.144 Y97.078 E.0471
G1 X148.066 Y95.888 E.0472
G1 X149.107 Y94.813 E.04692
G1 X150.314 Y93.82 E.04901
G1 X151.572 Y93.002 E.04705
G1 X152.913 Y92.327 E.04707
G1 X154.32 Y91.804 E.04706
G1 X155.714 Y91.451 E.04509
G1 X157.201 Y91.241 E.04709
G1 X158.67 Y91.197 E.04608
G1 X160.258 Y91.326 E.04995
G1 X161.731 Y91.617 E.04708
G1 X163.162 Y92.068 E.04704
G1 X164.535 Y92.674 E.04706
G1 X165.833 Y93.427 E.04705
G1 X166.992 Y94.279 E.0451
G1 X167.003 Y94.289 E.00047
M204 S1000
G1 X166.794 Y94.605 F10800
M204 S800
;TYPE:External perimeter
G1 F1200
G1 X167.845 Y95.572 E.04478
G1 X168.803 Y96.67 E.04569
G1 X169.635 Y97.869 E.04576
G1 X170.331 Y99.152 E.04577
G1 X170.881 Y100.504 E.04576
G1 X171.279 Y101.908 E.04576
G1 X171.521 Y103.347 E.04575
G1 X171.602 Y104.804 E.04575
G1 X171.523 Y106.261 E.04575
G1 X171.284 Y107.702 E.0458
G1 X170.881 Y109.125 E.04637
G1 X170.34 Y110.458 E.04511
G1 X169.646 Y111.742 E.04576
G1 X168.803 Y112.958 E.04639
G1 X167.858 Y114.043 E.04511
G1 X166.769 Y115.046 E.04642
G1 X165.61 Y115.898 E.0451
G1 X164.347 Y116.628 E.04574
G1 X163.011 Y117.216 E.04577
G1 X161.618 Y117.652 E.04577
G1 X160.166 Y117.936 E.04639
G1 X158.711 Y118.055 E.04577
G1 X157.252 Y118.014 E.04576
G1 X155.807 Y117.812 E.04575
G1 X154.393 Y117.453 E.04574
G1 X153.026 Y116.94 E.04578
G1 X151.743 Y116.291 E.04508
G1 X150.52 Y115.494 E.04577
G1 X149.393 Y114.567 E.04575
G1 X148.361 Y113.506 E.04641
G1 X147.465 Y112.353 E.04578
G1 X146.702 Y111.11 E.04573
G1 X146.094 Y109.818 E.04477
G1 X145.608 Y108.409 E.04673
G1 X145.293 Y107.005 E.04512
G1 X145.131 Y105.554 E.04578
G1 X145.13 Y104.095 E.04575
G1 X145.29 Y102.644 E.04577
G1 X145.608 Y101.22 E.04575
G1 X146.078 Y99.85 E.04541
G1 X146.712 Y98.501 E.04674
G1 X147.477 Y97.258 E.04576
G1 X148.375 Y96.107 E.04577
G1 X149.393 Y95.062 E.04574
G1 X150.504 Y94.148 E.04511
G1 X151.725 Y93.348 E.04577
G1 X153.026 Y92.688 E.04574
G1 X154.393 Y92.176 E.04577
G1 X155.807 Y91.816 E.04575
G1 X157.273 Y91.613 E.0464
G1 X158.701 Y91.575 E.04479
G1 X160.186 Y91.696 E.04672
G1 X161.618 Y91.976 E.04575
G1 X162.991 Y92.406 E.04511
G1 X164.328 Y92.991 E.04576
G1 X165.593 Y93.72 E.04578
G1 X166.747 Y94.568 E.0449
M204 S1000
;WIPE_START
G1 F8640
G1 X166.794 Y94.605 E-.01381
G1 X167.845 Y95.572 E-.32977
G1 X168.803 Y96.67 E-.33647
G1 X169.099 Y97.097 E-.11995
;WIPE_END
G1 Z.6 F720
G1 X69.275 Y84.36 F10800
G1 Z.2 F720
G1 E.8 F2100
M204 S800
;TYPE:Perimeter
G1 F1200
G1 X125.018 Y84.36 E1.74778
G1 X125.716 Y84.339 E.0219
G1 X139.369 Y80.558 E.44419
G1 X167.679 Y80.558 E.88764
G1 X176.57 Y83.021 E.28927
M73 P1 R62
M73 Q1 S63
G1 X177.363 Y83.303 E.02639
G1 X178.081 Y83.683 E.02547
G1 X178.737 Y84.163 E.02549
G1 X179.317 Y84.732 E.02548
G1 X179.809 Y85.379 E.02549
G1 X180.202 Y86.09 E.02547
G1 X180.49 Y86.85 E.02548
G1 X180.664 Y87.644 E.02549
G1 X180.725 Y88.698 E.0331
G1 X180.725 Y121.472 E1.0276
G1 X180.665 Y122.308 E.02628
G1 X180.491 Y123.099 E.02539
G1 X180.206 Y123.857 E.02539
G1 X179.815 Y124.566 E.02539
G1 X179.326 Y125.212 E.0254
G1 X178.75 Y125.78 E.02536
G1 X178.098 Y126.261 E.0254
G1 X177.384 Y126.642 E.02537
G1 X176.595 Y126.927 E.0263
G1 X167.677 Y129.442 E.29052
G1 X139.371 Y129.442 E.88751
G1 X125.719 Y125.593 E.44474
G1 X125.566 Y125.572 E.00484
G1 X69.275 Y125.572 E1.76496
G1 X69.275 Y84.42 E1.29029
M204 S1000
G1 X68.898 Y83.983 F10800
M73 P1 R61
M204 S800
;TYPE:External perimeter
G1 F1200
G1 X125.616 Y83.976 E1.77835
G1 X139.318 Y80.181 E.44579
G1 X167.73 Y80.181 E.89084
G1 X176.684 Y82.661 E.29132
G1 X177.515 Y82.957 E.02766
G1 X178.281 Y83.363 E.02718
G1 X178.981 Y83.875 E.02719
G1 X179.6 Y84.482 E.02718
G1 X180.125 Y85.173 E.02721
G1 X180.546 Y85.931 E.02719
G1 X180.852 Y86.743 E.02721
G1 X181.039 Y87.59 E.0272
G1 X181.102 Y88.698 E.0348
G1 X181.102 Y121.485 E1.02801
G1 X181.039 Y122.362 E.02757
G1 X180.854 Y123.206 E.02709
G1 X180.549 Y124.015 E.02711
G1 X180.132 Y124.772 E.0271
G1 X179.611 Y125.461 E.02708
G1 X178.995 Y126.068 E.02712
G1 X178.3 Y126.58 E.02707
G1 X177.537 Y126.988 E.02713
G1 X176.711 Y127.287 E.02754
G1 X167.729 Y129.819 E.2926
G1 X139.319 Y129.819 E.89077
G1 X125.566 Y125.949 E.44796
G1 X68.898 Y125.949 E1.77678
G1 X68.898 Y84.043 E1.31393
M204 S1000
;WIPE_START
G1 F8640
G1 X68.898 Y83.983 E-.01385
G1 X72.303 Y83.983 E-.78615
;WIPE_END
G1 Z.6 F720
G1 X179.779 Y85.676 F10800
G1 Z.2 F720
G1 E.8 F2100
M204 S800
;TYPE:Solid infill
;WIDTH:0.421299
G1 F1200
G1 X178.516 Y84.423 E.05597
G1 X177.9 Y83.972 E.02402
G1 X177.159 Y83.591 E.02621
G1 X179.95 Y86.382 E.12418
G1 X180.164 Y86.947 E.01901
G1 X180.215 Y87.182 E.00757
G1 X176.343 Y83.31 E.17228
G1 X175.603 Y83.105 E.02416
G1 X180.338 Y87.841 E.2107
G1 X180.38 Y88.417 E.01817
G1 X174.863 Y82.9 E.24548
G1 X174.122 Y82.695 E.02419
G1 X180.386 Y88.958 E.27869
G1 X180.386 Y89.493 E.01683
G1 X173.382 Y82.49 E.31162
G1 X172.642 Y82.285 E.02416
G1 X180.386 Y90.028 E.34454
G1 X180.386 Y90.564 E.01686
G1 X171.902 Y82.08 E.37749
G1 X171.162 Y81.875 E.02416
G1 X180.386 Y91.099 E.41042
G1 X180.386 Y91.634 E.01683
G1 X170.422 Y81.67 E.44334
G1 X169.682 Y81.465 E.02416
G1 X180.386 Y92.169 E.47627
G1 X180.386 Y92.704 E.01683
G1 X168.942 Y81.26 E.50919
G1 X168.201 Y81.055 E.02419
G1 X180.386 Y93.239 E.54214
G1 X180.386 Y93.774 E.01683
G1 X167.509 Y80.897 E.57296
G1 X166.974 Y80.897 E.01683
G1 X180.386 Y94.309 E.59676
G1 X180.386 Y94.844 E.01683
M73 P2 R61
G1 X166.438 Y80.897 E.62059
G1 X165.903 Y80.897 E.01683
M73 Q2 S63
G1 X180.386 Y95.38 E.64441
G1 X180.386 Y95.915 E.01683
G1 X165.368 Y80.897 E.66822
G1 X164.833 Y80.897 E.01683
G1 X180.386 Y96.45 E.69202
G1 X180.386 Y96.985 E.01683
G1 X164.298 Y80.897 E.71583
G1 X163.763 Y80.897 E.01683
G1 X180.386 Y97.52 E.73963
G1 X180.386 Y98.055 E.01683
G1 X163.228 Y80.897 E.76344
G1 X162.693 Y80.897 E.01683
M73 Q2 S62
G1 X180.386 Y98.59 E.78724
G1 X180.386 Y99.125 E.01683
G1 X162.158 Y80.897 E.81105
G1 X161.623 Y80.897 E.01683
G1 X180.386 Y99.66 E.83485
G1 X180.386 Y100.195 E.01683
G1 X161.087 Y80.897 E.85868
G1 X160.552 Y80.897 E.01683
G1 X180.386 Y100.731 E.8825
G1 X180.386 Y101.266 E.01683
G1 X160.017 Y80.897 E.90631
G1 X159.482 Y80.897 E.01683
G1 X180.386 Y101.801 E.93011
G1 X180.386 Y102.336 E.01683
G1 X158.947 Y80.897 E.95392
G1 X158.412 Y80.897 E.01683
G1 X180.386 Y102.871 E.97772
G1 X180.386 Y103.406 E.01683
G1 X157.877 Y80.897 E1.00153
G1 X157.342 Y80.897 E.01683
G1 X180.386 Y103.941 E1.02533
G1 X180.386 Y104.476 E.01683
G1 X156.807 Y80.897 E1.04914
G1 X156.271 Y80.897 E.01686
G1 X180.386 Y105.011 E1.07296
G1 X180.386 Y105.547 E.01686
G1 X155.736 Y80.897 E1.09679
G1 X155.201 Y80.897 E.01683
G1 X180.386 Y106.082 E1.12059
G1 X180.386 Y106.617 E.01683
G1 X154.666 Y80.897 E1.1444
G1 X154.131 Y80.897 E.01683
G1 X180.386 Y107.152 E1.1682
G1 X180.386 Y107.687 E.01683
M73 P2 R60
G1 X170.302 Y97.604 E.44866
G1 X170.934 Y98.77 E.04173
G1 X180.386 Y108.222 E.42056
G1 X180.386 Y108.757 E.01683
G1 X171.323 Y99.694 E.40325
G1 X171.575 Y100.321 E.02126
G1 X171.638 Y100.544 E.00729
G1 X180.386 Y109.292 E.38924
G1 X180.386 Y109.827 E.01683
M73 P3 R60
G1 X171.845 Y101.287 E.38001
G1 X171.989 Y101.802 E.01682
G1 X172.021 Y101.998 E.00625
G1 X180.386 Y110.363 E.3722
G1 X180.386 Y110.898 E.01683
M73 Q3 S62
G1 X172.126 Y102.638 E.36752
G1 X172.231 Y103.278 E.02041
G1 X180.386 Y111.433 E.36285
G1 X180.386 Y111.968 E.01683
G1 X172.267 Y103.849 E.36125
G1 X172.297 Y104.415 E.01783
G1 X180.386 Y112.503 E.35989
G1 X180.386 Y113.038 E.01683
G1 X172.311 Y104.963 E.35929
G1 X172.283 Y105.471 E.01601
G1 X180.386 Y113.573 E.36052
G1 X180.386 Y114.108 E.01683
G1 X172.256 Y105.978 E.36174
G1 X172.212 Y106.469 E.01551
G1 X180.386 Y114.643 E.3637
G1 X180.386 Y115.179 E.01686
G1 X172.136 Y106.929 E.36708
G1 X172.061 Y107.389 E.01466
G1 X180.386 Y115.714 E.37042
G1 X180.386 Y116.249 E.01683
G1 X171.984 Y107.847 E.37384
G1 X171.867 Y108.265 E.01366
G1 X180.386 Y116.784 E.37905
G1 X180.386 Y117.319 E.01683
G1 X171.75 Y108.683 E.38425
G1 X171.633 Y109.101 E.01366
G1 X180.386 Y117.854 E.38946
G1 X180.386 Y118.389 E.01683
G1 X171.498 Y109.501 E.39547
G1 X171.344 Y109.882 E.01293
G1 X180.386 Y118.924 E.40232
G1 X180.386 Y119.459 E.01683
G1 X171.19 Y110.264 E.40915
G1 X171.037 Y110.645 E.01292
G1 X180.386 Y119.995 E.416
G1 X180.386 Y120.53 E.01683
G1 X170.858 Y111.001 E.42397
G1 X170.67 Y111.349 E.01244
G1 X180.386 Y121.065 E.43231
G1 X180.376 Y121.59 E.01652
G1 X170.483 Y111.697 E.44018
G1 X170.296 Y112.046 E.01246
G1 X180.34 Y122.09 E.4469
G1 X180.328 Y122.259 E.00533
G1 X180.265 Y122.549 E.00934
G1 X170.082 Y112.366 E.45309
G1 X169.864 Y112.683 E.0121
G1 X180.168 Y122.988 E.45849
G1 X180.024 Y123.378 E.01308
G1 X169.646 Y113 E.46176
G1 X169.427 Y113.317 E.01212
G1 X179.871 Y123.761 E.4647
G1 X179.681 Y124.106 E.01239
G1 X169.182 Y113.607 E.46715
G1 X168.933 Y113.893 E.01193
G1 X179.483 Y124.443 E.46942
G1 X179.252 Y124.747 E.01201
G1 X168.684 Y114.179 E.47022
G1 X168.435 Y114.465 E.01193
G1 X179.014 Y125.043 E.47068
G1 X178.744 Y125.309 E.01192
G1 X168.168 Y114.733 E.47057
G1 X167.888 Y114.988 E.01192
G1 X178.467 Y125.567 E.47071
G1 X178.159 Y125.794 E.01204
G1 X167.609 Y115.244 E.46942
G1 X167.329 Y115.5 E.01194
G1 X177.842 Y126.013 E.46777
G1 X177.493 Y126.199 E.01244
G1 X167.034 Y115.739 E.46539
G1 X166.725 Y115.965 E.01204
G1 X177.132 Y126.373 E.46308
G1 X176.739 Y126.515 E.01315
G1 X166.415 Y116.191 E.45936
G1 X166.106 Y116.417 E.01204
G1 X176.337 Y126.648 E.45522
G1 X175.919 Y126.765 E.01366
G1 X165.781 Y116.627 E.45108
G1 X165.441 Y116.822 E.01233
G1 X175.502 Y126.883 E.44766
G1 X175.085 Y127.001 E.01363
G1 X165.101 Y117.017 E.44423
G1 X164.761 Y117.212 E.01233
M73 Q3 S61
G1 X174.667 Y127.118 E.44076
G1 X174.25 Y127.236 E.01363
G1 X164.401 Y117.388 E.4382
G1 X164.03 Y117.551 E.01275
G1 X173.832 Y127.354 E.43616
G1 X173.415 Y127.472 E.01363
G1 X163.658 Y117.714 E.43415
G1 X163.285 Y117.877 E.01281
G1 X172.998 Y127.589 E.43215
G1 X172.58 Y127.707 E.01367
G1 X162.877 Y118.004 E.43173
G1 X162.47 Y118.132 E.01342
G1 X172.163 Y127.825 E.43128
G1 X171.745 Y127.942 E.01366
G1 X162.062 Y118.259 E.43084
G1 X161.646 Y118.378 E.01361
G1 X171.328 Y128.06 E.4308
G1 X170.911 Y128.178 E.01363
G1 X161.198 Y118.465 E.43217
G1 X160.75 Y118.553 E.01436
M73 P4 R60
G1 X170.493 Y128.296 E.43351
G1 X170.076 Y128.413 E.01363
G1 X160.303 Y118.64 E.43484
G1 X159.809 Y118.682 E.0156
G1 X169.658 Y128.531 E.43823
G1 X169.241 Y128.649 E.01363
G1 X159.315 Y118.723 E.44165
G1 X158.821 Y118.764 E.0156
M73 Q4 S61
G1 X168.824 Y128.766 E.44506
G1 X168.406 Y128.884 E.01367
G1 X158.282 Y118.76 E.45046
G1 X157.732 Y118.745 E.01731
G1 X167.989 Y129.002 E.45638
G1 X167.63 Y129.103 E.01173
G1 X167.555 Y129.103 E.00236
G1 X157.174 Y118.722 E.4619
G1 X156.555 Y118.638 E.01965
G1 X167.02 Y129.103 E.46563
G1 X166.485 Y129.103 E.01683
G1 X155.936 Y118.554 E.46937
G1 X155.721 Y118.525 E.00683
G1 X155.255 Y118.409 E.01511
G1 X165.95 Y129.103 E.47585
G1 X165.414 Y129.103 E.01686
G1 X154.542 Y118.23 E.48377
G1 X154.229 Y118.152 E.01015
G1 X153.751 Y117.975 E.01604
G1 X164.879 Y129.103 E.49513
G1 X164.344 Y129.103 E.01683
G1 X152.9 Y117.659 E.50919
G1 X151.848 Y117.142 E.03688
G1 X163.979 Y129.273 E.53976
M204 S1000
;WIPE_START
G1 F8640
G1 X161.529 Y126.823 E-.8
;WIPE_END
G1 Z.6 F720
G1 X166.148 Y93.449 F10800
G1 Z.2 F720
G1 E.8 F2100
M204 S800
G1 F1200
G1 X153.596 Y80.897 E.55849
G1 X153.061 Y80.897 E.01683
G1 X164.408 Y92.244 E.50488
G1 X163.454 Y91.825 E.03278
G1 X152.526 Y80.897 E.48624
G1 X151.991 Y80.897 E.01683
G1 X162.642 Y91.549 E.47393
G1 X161.86 Y91.302 E.0258
G1 X151.455 Y80.897 E.46296
G1 X150.92 Y80.897 E.01683
G1 X161.187 Y91.164 E.45682
G1 X160.52 Y91.031 E.0214
G1 X150.385 Y80.897 E.45093
G1 X149.85 Y80.897 E.01683
M73 P4 R59
G1 X159.911 Y90.958 E.44766
G1 X159.329 Y90.911 E.01837
G1 X149.315 Y80.897 E.44557
G1 X148.78 Y80.897 E.01683
G1 X158.747 Y90.864 E.44348
G1 X158.219 Y90.872 E.01661
G1 X148.245 Y80.897 E.44381
